X: 15
T: GRANADIER'S EXERCISE
%R: reel
M: C|
L: 1/8
Z: 2011,2014 John Chambers <jc:trillian.mit.edu>
B: Thomas Bray's Country Dances 1699 p.36
N: Duple minor longways
P: AABB ad lib.
Q: 1/2=92 "well articulated"
K: Bb
%----------------------------------------
% V:1 arranged to give fewer, longer staff lines.
V: 1
"A"|: B2BB B2B2 | B4   F4   | B2Bc d2de | f2d2 B2d2 |\
      f2fg a2f2 | b2f2 d2g2 | c2f2 f3=e | f4   f4  :|
"B"|: f2fg a2f2 | b2f2 d2f2 | e2ef g2e2 | g2e2 c2e2 |\
      d2de f2B2 | A2c2 F2f2 | d2cB c2A2 | B4   B4  :|
%----------------------------------------
V: 2
|: D2DD D2D2 | D2B,2 D2F2 | D2DF B2Bc | d2B2  F2B2  |
   d2ed c2dc | B2BB  B2G2 | F2D2 C2G2 | A2F2  C2F2 :|
|: A2AB c2A2 | B2d2  B2d2 | e2c2 G2c2 | E2G2  F2A2  |
   B2F2 B2G2 | F2C2  F2C2 | D2FF C2F2 | D2B,2 HD2F2 :|
%----------------------------------------
V: 3 clef=bass middle=d
|:"Bb"b8-           | "Bb"b8              | "Bb"B6        B2 | "Bb"B8  |
  "Bb"B4    "F"f2e2 | "Bb"d4    B2-"Gm"B2 |  "F"A2B2 "C"c2C2 |  "F"F8 :|
|: "F"f6         e2 | "Bb"d8              | "Cm"c2cd    e2c2 | "Cm"c'4 "F7"a2f2 |
  "Bb"b2Bc d2"Eb"e2 | "F"f2e2 "Bb"d2"F"A2 | "Bb"B4   "F"f2F2 | "Bb"B8 :|
% - - - - - - - - Dance description - - - - - - - -
%%center Granadiers Exercise, a New Country Dance.
%%begintext align
%% The 1st Man and Wo. change places with the right Hand, and lead down betwixt the 2d cu.
%% and turn from each other, the 2d Cu. at the same time fall back, and cast up half way, the meet
%% the 1st cu. with their Faces to each other all on a row, cross the Room; then the 1st Man pulls the 2d
%% Wo. to him below, the 1st Wo. pulls the 2d Man to her above, at the same time then all turn S. .| The
%% same again, only the 2d Man begins with the 1st Wo. and the 1st Man the 2d Wo. fall back and cast
%% a little up as before, .| The 1st Man cast off and go round the 2d Wo. on the inside, his Wo.
%% following him at the same time, and go round the 2d Man on the inside till they meet below the 2d cu.
%% and then cross over with each other .| Then 1st Man cross over with the 2d Wo. 2d Man with the
%% 1st Wo. after them; then 1st Man and 2d Wo. again, the other cu. the same :| And so to the end.
%%endtext

%%sep 1 1 500

